X: 2
T: Old Grey Cat v.2
P: piffero primo b0785
O: Ruthie Dornfeld
%R: jig
F: http://ancients.sudburymuster.org/mus/sng/pdf/oldgreycatC0.pdf
Z: 2019 John Chambers <jc:trillian.mit.edu>
M: 4/4
L: 1/8
K: Edor
Bd |\
e2e2 E3F | GFGA BABc | d2d2 D3E | FAdB AFED |\
e2e2 E3F | GFGA BABc | dcBA BAGF |
DE2F E2 ||\
Bd |\
E2E2 E4 | E4 B,4 | D2D2 D4 | D2F2 D2B,2 |\
E2E2 E4 | E4 B,4 | G2F2 E2D2 | B,2EE E2 ||
EE |\
E2EF E2E2 | E8 | ED3 D3B, | D8 |\
B4 D4 | E4 G4 | B4 F4 | E2B2 E2 ||
z2 |\
B4- B3B | G4 d2B2 | A4- A3B | F4 B2G2 |\
E2E2 D2D2 | C2C2 B,2B,2 | (3A,B,C EF G2B2 | B4 Ez |]
